!!!OTL: HERZIGS SCHATZERL
!!!ARE: Europa, Mitteleuropa, Oesterreich, Tirol
!!!SCT: E0637
!!!YEM: Copyright 1995, estate of Helmut Schaffrath.
**kern
*ICvox
*Ivox
*M3/4
*k[]
*C:
{8.E
16F
=1
4G
8.e
16d
8.c
16A
=2
4G
8E
8r}
{8.A
16G
=3
8G
8BB
8D
8F
8.A
16G
=4
4G
8E
8r}
{8.E
16F
=5
4G
4e
8.c
16A
=6
4G
8E}
{8G
8.A
16G
=7
8.G
16f
4f
8B
8B
=8
4c
8r}
{8G
8.A
16G
=9
8F
8BB
8D
8F
8.A
16G
=10
8G
8C
8E}
{8G
8.A
16G
=11
8F
8BB
8D
8F
8.A
16G#
=12
8G
8C
4E}
{8.E
16F
=13
4G
8.e
16d
8.c
16A
=14
4G
8E}
{8G
8.A
16G
=15
8.G
16f
4f
8B
8B
=16
4c
4r}
==
!!!AGN: Liebes - Lied
!!!ONB: ESAC (Essen Associative Code) Database: ERK2
!!!AMT: simple triple
!!!AIN: vox
!!!EED: Helmut Schaffrath
!!!EEV: 1.0
*-
